X:527
T:B527-  With a Fading (Rince Fada?)
S:(1st/2)
Q:1/4=120
L:1/4
M:6/4
K:D mixolydian
D|G2DG2A|B3/2c/BA2F|GGDG2d|e3/2f/gf3|\
gfedcB|ABcB3|e3d3/2c/B|A2DG3/2A/B|\
B3/2A/GBd2|]

